src/topics/icons/createjs.svg

<svg height="293" preserveAspectRatio="xMidYMid" viewBox="0 0 256 293" width="256" xmlns="http://www.w3.org/2000/svg"><path d="m252.077707 70.214643-120.174974-69.17213207c-2.414922-1.39001457-5.390544-1.39001457-7.805466 0l-120.17758239 69.17213207c-2.42535375 1.3952304-3.91968461 3.9822744-3.91968461 6.7805589v138.2999301c0 2.798284 1.49433086 5.385328 3.91968461 6.780558l120.17758239 69.169525c2.414922 1.390014 5.390544 1.390014 7.805466 0l120.177582-69.169525c2.425354-1.39523 3.919685-3.982274 3.919685-6.780558v-138.2999301c0-2.8008924-1.494331-5.3853285-3.922293-6.7805589zm-133.237981-24.8324929c0 .4668154-.247751.8971201-.651977 1.1292238l-42.9887433 24.7699032c-.871041.5007182-.871041 1.7577295 0 2.2610556l42.9861353 24.7412161c.404226.2321037.654585.6624084.654585 1.1292238v17.9763044c0 1.004045-1.08489 1.629942-1.953323 1.129224l-78.1329012-44.9681446c-.871041-.5007182-.871041-1.7577295 0-2.2610556l78.1302932-45.0176951c.868433-.5007182 1.955931.1277875 1.955931 1.1292239zm98.404164 28.1680063-78.195491 45.0072636c-.868433.500718-1.953322-.127788-1.953322-1.129224v-17.9763048c0-.4668154.250359-.8971201.654584-1.1292238l43.051333-24.7777268c.871041-.5007182.871041-1.7577295 0-2.2610556l-43.051333-24.8064139c-.404225-.2321037-.651977-.6624084-.651977-1.1292238v-17.9815205c0-1.0040443 1.08489-1.6299421 1.955931-1.1292239l78.195491 45.0542058c.865825.5007182.865825 1.7577295-.005216 2.2584477z" fill="#405261"/></svg>

<?xml version="1.0" encoding="UTF-8" standalone="no"?>
<svg width="256px" height="293px" viewBox="0 0 256 293" version="1.1" xmlns="http://www.w3.org/2000/svg" xmlns:xlink="http://www.w3.org/1999/xlink" preserveAspectRatio="xMidYMid">
    <g>
        <path d="M252.077707,70.214643 L131.902733,1.04251093 C129.487811,-0.347503642 126.512189,-0.347503642 124.097267,1.04251093 L3.91968461,70.214643 C1.49433086,71.6098734 0,74.1969174 0,76.9952019 L0,215.295132 C0,218.093416 1.49433086,220.68046 3.91968461,222.07569 L124.097267,291.245215 C126.512189,292.635229 129.487811,292.635229 131.902733,291.245215 L252.080315,222.07569 C254.505669,220.68046 256,218.093416 256,215.295132 L256,76.9952019 C256,74.1943095 254.505669,71.6098734 252.077707,70.214643 L252.077707,70.214643 Z M118.839726,45.3821501 C118.839726,45.8489655 118.591975,46.2792702 118.187749,46.5113739 L75.1990057,71.2812771 C74.3279647,71.7819953 74.3279647,73.0390066 75.1990057,73.5423327 L118.185141,98.2835488 C118.589367,98.5156525 118.839726,98.9459572 118.839726,99.4127726 L118.839726,117.389077 C118.839726,118.393122 117.754836,119.019019 116.886403,118.518301 L38.7535018,73.5501564 C37.8824608,73.0494382 37.8824608,71.7924269 38.7535018,71.2891008 L116.883795,26.2714057 C117.752228,25.7706875 118.839726,26.3991932 118.839726,27.4006296 L118.839726,45.3821501 L118.839726,45.3821501 Z M217.24389,73.5501564 L139.048399,118.55742 C138.179966,119.058138 137.095077,118.429632 137.095077,117.428196 L137.095077,99.4518912 C137.095077,98.9850758 137.345436,98.5547711 137.749661,98.3226674 L180.800994,73.5449406 C181.672035,73.0442224 181.672035,71.7872111 180.800994,71.283885 L137.749661,46.4774711 C137.345436,46.2453674 137.097684,45.8150627 137.097684,45.3482473 L137.097684,27.3667268 C137.097684,26.3626825 138.182574,25.7367847 139.053615,26.2375029 L217.249106,71.2917087 C218.114931,71.7924269 218.114931,73.0494382 217.24389,73.5501564 L217.24389,73.5501564 Z" fill="#405261"></path>
    </g>
</svg>
